optimized/24/solid/arrow-small-down.svg

<svg xmlns="http://www.w3.org/2000/svg" viewBox="0 0 24 24">
  <path fill-rule="evenodd" d="M12 3.75C12.4142 3.75 12.75 4.08579 12.75 4.5L12.75 17.6893L18.2197 12.2197C18.5126 11.9268 18.9874 11.9268 19.2803 12.2197C19.5732 12.5126 19.5732 12.9874 19.2803 13.2803L12.5303 20.0303C12.2374 20.3232 11.7626 20.3232 11.4697 20.0303L4.71967 13.2803C4.42678 12.9874 4.42678 12.5126 4.71967 12.2197C5.01256 11.9268 5.48744 11.9268 5.78033 12.2197L11.25 17.6893L11.25 4.5C11.25 4.08579 11.5858 3.75 12 3.75Z" clip-rule="evenodd"/>
</svg>

<svg xmlns="http://www.w3.org/2000/svg" viewBox="0 0 24 24" fill="currentColor" aria-hidden="true">
  <path fill-rule="evenodd" d="M12 3.75a.75.75 0 01.75.75v13.19l5.47-5.47a.75.75 0 111.06 1.06l-6.75 6.75a.75.75 0 01-1.06 0l-6.75-6.75a.75.75 0 111.06-1.06l5.47 5.47V4.5a.75.75 0 01.75-.75z" clip-rule="evenodd"/>
</svg>
